;Generated with Cura_SteamEngine 15.01
; Default start code
G28 ; Home extruder
G1 Z15 F100
M107 ; Turn off fan
G90 ; Absolute positioning
M82 ; Extruder in absolute mode
M190 S50
; Activate all used extruder
M104 T0 S210
G92 E0 ; Reset extruder position
; Wait for all used extruders to reach temperature
M109 T0 S210
;Layer count: 87
;LAYER:0
M107
G0 F9000 X51.800 Y51.798 Z0.300
;TYPE:SKIRT
G1 F1800 X148.200 Y51.798 E4.80942
G1 X148.200 Y148.198 E9.61883
G1 X51.800 Y148.198 E14.42825
G1 X51.800 Y51.798 E19.23766
G1 F2400 E15.23766
G0 F9000 X55.600 Y55.598
;TYPE:WALL-INNER
G1 F2400 E19.23766
G1 F1800 X144.400 Y55.598 E23.66791
G1 X144.400 Y144.398 E28.09816
G1 X55.600 Y144.398 E32.52841
G1 X55.600 Y55.598 E36.95866
G0 F9000 X75.386 Y97.789
G1 F1800 X74.808 Y98.095 E36.99129
G1 X74.327 Y98.542 E37.02405
G1 X73.954 Y99.128 E37.05871
G1 X73.758 Y99.754 E37.09143
G1 X73.723 Y100.321 E37.11977
G1 X73.729 Y100.438 E37.12562
G1 X73.849 Y101.045 E37.15649
G1 X74.134 Y101.635 E37.18918
G1 X74.556 Y102.133 E37.22174
G1 X75.083 Y102.509 E37.25404
G1 X75.649 Y102.733 E37.28441
G1 X76.250 Y102.815 E37.31467
G1 X76.371 Y102.818 E37.32071
G1 X76.992 Y102.733 E37.35198
G1 X77.594 Y102.487 E37.38443
G1 X78.119 Y102.099 E37.41700
G1 X78.531 Y101.592 E37.44959
G1 X78.802 Y100.999 E37.48212
G1 X78.907 Y100.442 E37.51039
G1 X78.916 Y100.325 E37.51625
G1 X78.871 Y99.707 E37.54716
G1 X78.664 Y99.085 E37.57987
G1 X78.309 Y98.540 E37.61232
G1 X77.828 Y98.095 E37.64501
G1 X77.251 Y97.789 E37.67759
G1 X76.622 Y97.633 E37.70993
G1 X76.015 Y97.632 E37.74021
G1 X75.386 Y97.789 E37.77255
G0 F9000 X76.621 Y97.635
G0 X97.438 Y99.533
G1 F1800 X97.401 Y100.098 E37.80080
G1 X97.407 Y100.219 E37.80684
G1 X97.530 Y100.826 E37.83774
G1 X97.814 Y101.414 E37.87032
G1 X98.236 Y101.913 E37.90293
G1 X98.765 Y102.290 E37.93533
G1 X99.303 Y102.503 E37.96420
G1 X99.414 Y102.529 E37.96989
G1 X99.933 Y102.597 E37.99600
G1 X100.055 Y102.600 E38.00209
G1 X100.672 Y102.513 E38.03318
G1 X101.274 Y102.268 E38.06561
G1 X101.799 Y101.879 E38.09820
G1 X102.210 Y101.372 E38.13077
G1 X102.449 Y100.859 E38.15900
G1 X102.486 Y100.750 E38.16474
G1 X102.587 Y100.223 E38.19151
G1 X102.596 Y100.105 E38.19742
G1 X102.552 Y99.487 E38.22833
G1 X102.344 Y98.866 E38.26100
G1 X101.989 Y98.318 E38.29358
G1 X101.508 Y97.879 E38.32607
G1 X100.935 Y97.569 E38.35857
G1 X100.303 Y97.414 E38.39103
G1 X99.694 Y97.413 E38.42142
G1 X99.020 Y97.586 E38.45613
G1 X98.449 Y97.908 E38.48884
G1 X97.978 Y98.357 E38.52130
G1 X97.631 Y98.912 E38.55396
G1 X97.438 Y99.533 E38.58640
G0 F9000 X98.450 Y97.910
G0 X100.303 Y97.416
G0 X101.987 Y98.319
G0 X122.527 Y99.874
G1 F1800 X122.533 Y99.992 E38.59230
G1 X122.635 Y100.527 E38.61947
G1 X122.673 Y100.638 E38.62532
G1 X122.937 Y101.190 E38.65585
G1 X123.360 Y101.692 E38.68860
G1 X123.891 Y102.067 E38.72103
G1 X124.452 Y102.288 E38.75111
G1 X125.054 Y102.373 E38.78144
G1 X125.179 Y102.376 E38.78768
G1 X125.798 Y102.289 E38.81887
G1 X126.399 Y102.044 E38.85125
G1 X126.923 Y101.657 E38.88375
G1 X127.335 Y101.148 E38.91642
G1 X127.605 Y100.559 E38.94874
G1 X127.713 Y100.001 E38.97710
G1 X127.722 Y99.883 E38.98300
G1 X127.677 Y99.262 E39.01407
G1 X127.470 Y98.644 E39.04658
G1 X127.115 Y98.099 E39.07903
G1 X126.674 Y97.683 E39.10928
G1 X126.107 Y97.365 E39.14171
G1 X125.477 Y97.195 E39.17427
G1 X124.823 Y97.187 E39.20690
G1 X124.188 Y97.345 E39.23954
G1 X123.615 Y97.653 E39.27200
G1 X123.134 Y98.095 E39.30459
G1 X122.779 Y98.643 E39.33716
G1 X122.571 Y99.261 E39.36969
G1 X122.527 Y99.874 E39.40036
G0 F9000 X122.928 Y99.879
;TYPE:WALL-OUTER
G1 F1800 X122.931 Y99.945 E39.40365
G1 X123.044 Y100.487 E39.43127
G1 X123.276 Y100.971 E39.45805
G1 X123.633 Y101.395 E39.48571
G1 X124.082 Y101.712 E39.51313
G1 X124.555 Y101.899 E39.53850
G1 X125.087 Y101.974 E39.56531
G1 X125.156 Y101.975 E39.56875
G1 X125.693 Y101.900 E39.59580
G1 X126.202 Y101.693 E39.62321
G1 X126.644 Y101.366 E39.65064
G1 X126.992 Y100.935 E39.67828
G1 X127.222 Y100.436 E39.70569
G1 X127.316 Y99.948 E39.73049
G1 X127.321 Y99.882 E39.73379
G1 X127.282 Y99.341 E39.76085
G1 X127.107 Y98.819 E39.78832
G1 X126.806 Y98.357 E39.81583
G1 X126.435 Y98.008 E39.84124
G1 X125.955 Y97.738 E39.86871
G1 X125.422 Y97.594 E39.89626
G1 X124.870 Y97.588 E39.92380
G1 X124.333 Y97.721 E39.95140
G1 X123.848 Y97.982 E39.97888
G1 X123.442 Y98.355 E40.00638
G1 X123.142 Y98.818 E40.03391
G1 X122.966 Y99.340 E40.06139
G1 X122.928 Y99.879 E40.08835
G0 F9000 X122.629 Y99.858
G0 X102.493 Y100.126
G0 X102.195 Y100.104
G1 F1800 X102.157 Y99.566 E40.11526
G1 X101.981 Y99.041 E40.14288
G1 X101.681 Y98.579 E40.17036
G1 X101.275 Y98.208 E40.19780
G1 X100.790 Y97.945 E40.22533
G1 X100.254 Y97.814 E40.25286
G1 X99.744 Y97.813 E40.27830
G1 X99.171 Y97.960 E40.30781
G1 X98.689 Y98.232 E40.33543
G1 X98.291 Y98.612 E40.36288
G1 X97.998 Y99.080 E40.39043
G1 X97.834 Y99.606 E40.41791
G1 X97.802 Y100.101 E40.44266
G1 X97.805 Y100.169 E40.44606
G1 X97.912 Y100.697 E40.47293
G1 X98.152 Y101.195 E40.50051
G1 X98.509 Y101.616 E40.52805
G1 X98.958 Y101.936 E40.55556
G1 X99.485 Y102.135 E40.58366
G1 X99.964 Y102.198 E40.60777
G1 X100.032 Y102.199 E40.61116
G1 X100.567 Y102.124 E40.63811
G1 X101.077 Y101.917 E40.66557
G1 X101.520 Y101.588 E40.69310
G1 X101.868 Y101.159 E40.72066
G1 X102.099 Y100.647 E40.74869
G1 X102.190 Y100.170 E40.77291
G1 X102.195 Y100.104 E40.77621
G0 F9000 X102.493 Y100.126
G0 X102.342 Y98.868
G0 X100.934 Y97.571
G0 X99.021 Y97.588
G0 X97.633 Y98.913
G0 X78.813 Y100.346
G0 X78.515 Y100.324
G1 F1800 X78.476 Y99.786 E40.80313
G1 X78.301 Y99.260 E40.83078
G1 X78.001 Y98.800 E40.85818
G1 X77.595 Y98.424 E40.88579
G1 X77.107 Y98.166 E40.91333
G1 X76.573 Y98.033 E40.94078
G1 X76.064 Y98.032 E40.96618
G1 X75.530 Y98.165 E40.99363
G1 X75.042 Y98.424 E41.02120
G1 X74.637 Y98.800 E41.04877
G1 X74.320 Y99.298 E41.07822
G1 X74.154 Y99.827 E41.10588
G1 X74.124 Y100.323 E41.13067
G1 X74.127 Y100.389 E41.13397
G1 X74.232 Y100.917 E41.16082
G1 X74.472 Y101.416 E41.18845
G1 X74.829 Y101.836 E41.21595
G1 X75.276 Y102.155 E41.24335
G1 X75.751 Y102.343 E41.26883
G1 X76.282 Y102.416 E41.29557
G1 X76.349 Y102.417 E41.29892
G1 X76.887 Y102.344 E41.32600
G1 X77.397 Y102.136 E41.35348
G1 X77.840 Y101.808 E41.38098
G1 X78.188 Y101.379 E41.40854
G1 X78.418 Y100.877 E41.43609
G1 X78.510 Y100.390 E41.46082
G1 X78.515 Y100.324 E41.46412
G0 F9000 X78.813 Y100.346
G0 X78.530 Y101.591
G0 X55.410 Y144.498
G0 X55.200 Y144.798
G1 F1800 X55.200 Y55.198 E45.93428
G1 X144.800 Y55.198 E50.40444
G1 X144.800 Y144.798 E54.87461
G1 X55.200 Y144.798 E59.34477
G0 F9000 X56.292 Y144.256
;TYPE:SKIN
G1 F1800 X55.739 Y143.703 E59.38379
G0 F9000 X55.739 Y143.137
G1 F1800 X56.858 Y144.256 E59.46274
G0 F9000 X57.424 Y144.256
G1 F1800 X55.739 Y142.571 E59.58162
G0 F9000 X55.739 Y142.006
G1 F1800 X57.989 Y144.256 E59.74037
G0 F9000 X58.555 Y144.256
G1 F1800 X55.739 Y141.440 E59.93906
G0 F9000 X55.739 Y140.874
G1 F1800 X59.121 Y144.256 E60.17767
G0 F9000 X59.686 Y144.256
G1 F1800 X55.739 Y140.309 E60.45616
G0 F9000 X55.739 Y139.743
G1 F1800 X60.252 Y144.256 E60.77457
G0 F9000 X60.818 Y144.256
G1 F1800 X55.739 Y139.177 E61.13292
G0 F9000 X55.739 Y138.612
G1 F1800 X61.383 Y144.256 E61.53114
G0 F9000 X61.949 Y144.256
G1 F1800 X55.739 Y138.046 E61.96929
G0 F9000 X55.739 Y137.480
G1 F1800 X62.515 Y144.256 E62.44737
G0 F9000 X63.080 Y144.256
G1 F1800 X55.739 Y136.914 E62.96535
G0 F9000 X55.739 Y136.349
G1 F1800 X63.646 Y144.256 E63.52324
G0 F9000 X64.212 Y144.256
G1 F1800 X55.739 Y135.783 E64.12105
G0 F9000 X55.739 Y135.217
G1 F1800 X64.778 Y144.256 E64.75880
G0 F9000 X65.343 Y144.256
G1 F1800 X55.739 Y134.652 E65.43642
G0 F9000 X55.739 Y134.086
G1 F1800 X65.909 Y144.256 E66.15396
G0 F9000 X66.475 Y144.256
G1 F1800 X55.739 Y133.520 E66.91145
G0 F9000 X55.739 Y132.955
G1 F1800 X67.040 Y144.256 E67.70879
G0 F9000 X67.606 Y144.256
G1 F1800 X55.739 Y132.389 E68.54607
G0 F9000 X55.739 Y131.823
G1 F1800 X68.172 Y144.256 E69.42329
G0 F9000 X68.737 Y144.256
G1 F1800 X55.739 Y131.258 E70.34037
G0 F9000 X55.739 Y130.692
G1 F1800 X69.303 Y144.256 E71.29738
G0 F9000 X69.869 Y144.256
G1 F1800 X55.739 Y130.126 E72.29433
G0 F9000 X55.739 Y129.561
G1 F1800 X70.434 Y144.256 E73.33114
G0 F9000 X71.000 Y144.256
G1 F1800 X55.739 Y128.995 E74.40789
G0 F9000 X55.739 Y128.429
G1 F1800 X71.566 Y144.256 E75.52457
G0 F9000 X72.131 Y144.256
G1 F1800 X55.739 Y127.863 E76.68115
G0 F9000 X55.739 Y127.298
G1 F1800 X72.697 Y144.256 E77.87763
G0 F9000 X73.263 Y144.256
G1 F1800 X55.739 Y126.732 E79.11404
G0 F9000 X55.739 Y126.166
G1 F1800 X73.829 Y144.256 E80.39039
G0 F9000 X74.394 Y144.256
G1 F1800 X55.739 Y125.601 E81.70660
G0 F9000 X55.739 Y125.035
G1 F1800 X74.960 Y144.256 E83.06274
G0 F9000 X75.526 Y144.256
G1 F1800 X55.739 Y124.469 E84.45882
G0 F9000 X55.739 Y123.904
G1 F1800 X76.091 Y144.256 E85.89477
G0 F9000 X76.657 Y144.256
G1 F1800 X55.739 Y123.338 E87.37064
G0 F9000 X55.739 Y122.772
G1 F1800 X77.223 Y144.256 E88.88646
G0 F9000 X77.788 Y144.256
G1 F1800 X55.739 Y122.207 E90.44213
G0 F9000 X55.739 Y121.641
G1 F1800 X78.354 Y144.256 E92.03774
G0 F9000 X78.920 Y144.256
G1 F1800 X55.739 Y121.075 E93.67329
G0 F9000 X55.739 Y120.510
G1 F1800 X79.485 Y144.256 E95.34870
G0 F9000 X80.051 Y144.256
G1 F1800 X55.739 Y119.944 E97.06404
G0 F9000 X55.739 Y119.378
G1 F1800 X80.617 Y144.256 E98.81932
G0 F9000 X81.182 Y144.256
G1 F1800 X55.739 Y118.813 E100.61446
G0 F9000 X55.739 Y118.247
G1 F1800 X81.748 Y144.256 E102.44953
G0 F9000 X82.314 Y144.256
G1 F1800 X55.739 Y117.681 E104.32454
G0 F9000 X55.739 Y117.115
G1 F1800 X82.879 Y144.256 E106.23945
G0 F9000 X83.445 Y144.256
G1 F1800 X55.739 Y116.550 E108.19426
G0 F9000 X55.739 Y115.984
G1 F1800 X84.011 Y144.256 E110.18900
G0 F9000 X84.577 Y144.256
G1 F1800 X55.739 Y115.418 E112.22368
G0 F9000 X55.739 Y114.853
G1 F1800 X85.142 Y144.256 E114.29822
G0 F9000 X85.708 Y144.256
G1 F1800 X55.739 Y114.287 E116.41269
G0 F9000 X55.739 Y113.721
G1 F1800 X86.274 Y144.256 E118.56710
G0 F9000 X86.839 Y144.256
G1 F1800 X55.739 Y113.156 E120.76137
G0 F9000 X55.739 Y112.590
G1 F1800 X87.405 Y144.256 E122.99558
G0 F9000 X87.971 Y144.256
G1 F1800 X55.739 Y112.024 E125.26972
G0 F9000 X55.739 Y111.459
G1 F1800 X88.536 Y144.256 E127.58373
G0 F9000 X89.102 Y144.256
G1 F1800 X55.739 Y110.893 E129.93767
G0 F9000 X55.739 Y110.327
G1 F1800 X89.668 Y144.256 E132.33154
G0 F9000 X90.233 Y144.256
G1 F1800 X55.739 Y109.762 E134.76528
G0 F9000 X55.739 Y109.196
G1 F1800 X90.799 Y144.256 E137.23895
G0 F9000 X91.365 Y144.256
G1 F1800 X55.739 Y108.630 E139.75256
G0 F9000 X55.739 Y108.065
G1 F1800 X91.930 Y144.256 E142.30603
G0 F9000 X92.496 Y144.256
G1 F1800 X55.739 Y107.499 E144.89944
G0 F9000 X55.739 Y106.933
G1 F1800 X93.062 Y144.256 E147.53278
G0 F9000 X93.628 Y144.256
G1 F1800 X55.739 Y106.367 E150.20605
G0 F9000 X55.739 Y105.802
G1 F1800 X94.193 Y144.256 E152.91919
G0 F9000 X94.759 Y144.256
G1 F1800 X55.739 Y105.236 E155.67226
G0 F9000 X55.739 Y104.670
G1 F1800 X95.325 Y144.256 E158.46526
G0 F9000 X95.890 Y144.256
G1 F1800 X55.739 Y104.105 E161.29813
G0 F9000 X55.739 Y103.539
G1 F1800 X96.456 Y144.256 E164.17094
G0 F9000 X97.022 Y144.256
G1 F1800 X55.739 Y102.973 E167.08368
G0 F9000 X55.739 Y102.408
G1 F1800 X97.587 Y144.256 E170.03628
G0 F9000 X98.153 Y144.256
G1 F1800 X55.739 Y101.842 E173.02882
G0 F9000 X55.739 Y101.276
G1 F1800 X98.719 Y144.256 E176.06129
G0 F9000 X99.284 Y144.256
G1 F1800 X55.739 Y100.711 E179.13362
G0 F9000 X55.739 Y100.145
G1 F1800 X99.850 Y144.256 E182.24589
G0 F9000 X100.416 Y144.257
G1 F1800 X55.739 Y99.579 E185.39813
G0 F9000 X55.739 Y99.014
G1 F1800 X100.982 Y144.257 E188.59027
G0 F9000 X101.548 Y144.257
G1 F1800 X55.739 Y98.448 E191.82234
G0 F9000 X55.739 Y97.882
G1 F1800 X102.113 Y144.257 E195.09431
G0 F9000 X102.679 Y144.257
G1 F1800 X55.739 Y97.316 E198.40622
G0 F9000 X55.739 Y96.751
G1 F1800 X103.245 Y144.257 E201.75802
G0 F9000 X103.811 Y144.257
G1 F1800 X55.739 Y96.185 E205.14976
G0 F9000 X55.739 Y95.619
G1 F1800 X104.376 Y144.257 E208.58140
G0 F9000 X104.942 Y144.257
G1 F1800 X55.739 Y95.054 E212.05294
G0 F9000 X55.739 Y94.488
G1 F1800 X105.508 Y144.257 E215.56441
G0 F9000 X106.073 Y144.257
G1 F1800 X55.739 Y93.922 E219.11578
G0 F9000 X55.739 Y93.357
G1 F1800 X106.639 Y144.257 E222.70705
G0 F9000 X107.205 Y144.257
G1 F1800 X55.739 Y92.791 E226.33825
G0 F9000 X55.739 Y92.225
G1 F1800 X107.770 Y144.257 E230.00936
G0 F9000 X108.336 Y144.257
G1 F1800 X55.739 Y91.660 E233.72036
G0 F9000 X55.739 Y91.094
G1 F1800 X108.902 Y144.257 E237.47130
G0 F9000 X109.467 Y144.257
G1 F1800 X55.739 Y90.528 E241.26213
G0 F9000 X55.739 Y89.963
G1 F1800 X110.033 Y144.257 E245.09287
G0 F9000 X110.599 Y144.257
G1 F1800 X55.739 Y89.397 E248.96354
G0 F9000 X55.739 Y88.831
G1 F1800 X111.164 Y144.257 E252.87411
G0 F9000 X111.730 Y144.257
G1 F1800 X55.739 Y88.266 E256.82457
G0 F9000 X55.739 Y87.700
G1 F1800 X112.296 Y144.257 E260.81497
G0 F9000 X112.862 Y144.257
G1 F1800 X55.739 Y87.134 E264.84531
G0 F9000 X55.739 Y86.568
G1 F1800 X113.427 Y144.257 E268.91555
G0 F9000 X113.993 Y144.257
G1 F1800 X55.739 Y86.003 E273.02568
G0 F9000 X55.739 Y85.437
G1 F1800 X114.559 Y144.257 E277.17575
G0 F9000 X115.124 Y144.257
G1 F1800 X55.739 Y84.871 E281.36572
G0 F9000 X55.739 Y84.306
G1 F1800 X115.690 Y144.257 E285.59558
G0 F9000 X116.256 Y144.257
G1 F1800 X55.739 Y83.740 E289.86539
G0 F9000 X55.739 Y83.174
G1 F1800 X73.773 Y101.208 E291.13778
G0 F9000 X73.591 Y100.461
G1 F1800 X55.739 Y82.609 E292.39734
G0 F9000 X55.739 Y82.043
G1 F1800 X73.609 Y99.913 E293.65816
G0 F9000 X73.708 Y99.446
G1 F1800 X55.739 Y81.477 E294.92597
G0 F9000 X55.739 Y80.912
G1 F1800 X73.853 Y99.026 E296.20401
G0 F9000 X74.072 Y98.680
G1 F1800 X55.739 Y80.346 E297.49754
G0 F9000 X55.739 Y79.780
G1 F1800 X74.317 Y98.359 E298.80835
G0 F9000 X74.611 Y98.087
G1 F1800 X55.739 Y79.215 E300.13987
G0 F9000 X55.739 Y78.649
G1 F1800 X74.950 Y97.860 E301.49531
G0 F9000 X75.319 Y97.664
G1 F1800 X55.739 Y78.083 E302.87682
G0 F9000 X55.739 Y77.517
G1 F1800 X75.768 Y97.547 E304.29001
G0 F9000 X76.277 Y97.490
G1 F1800 X55.739 Y76.952 E305.73908
G0 F9000 X55.739 Y76.386
G1 F1800 X76.912 Y97.559 E307.23295
G0 F9000 X77.884 Y97.966
G1 F1800 X55.739 Y75.820 E308.79543
G0 F9000 X55.739 Y75.255
G1 F1800 X124.741 Y144.257 E313.66390
G0 F9000 X124.175 Y144.257
G1 F1800 X78.509 Y98.591 E316.88588
G0 F9000 X78.998 Y99.646
G1 F1800 X123.610 Y144.257 E320.03346
G0 F9000 X123.044 Y144.257
G1 F1800 X79.052 Y100.265 E323.13734
G0 F9000 X78.987 Y100.766
G1 F1800 X122.478 Y144.257 E326.20586
G0 F9000 X121.912 Y144.257
G1 F1800 X78.860 Y101.204 E329.24345
G0 F9000 X78.682 Y101.592
G1 F1800 X121.347 Y144.257 E332.25369
G0 F9000 X120.781 Y144.257
G1 F1800 X78.443 Y101.919 E335.24087
G0 F9000 X78.184 Y102.225
G1 F1800 X120.215 Y144.257 E338.20642
G0 F9000 X125.307 Y144.257
G1 F1800 X55.739 Y74.689 E343.11482
G0 F9000 X55.739 Y74.123
G1 F1800 X125.872 Y144.257 E348.06311
G0 F9000 X126.438 Y144.257
G1 F1800 X55.739 Y73.558 E353.05131
G0 F9000 X55.739 Y72.992
G1 F1800 X127.004 Y144.257 E358.07944
G0 F9000 X127.569 Y144.257
G1 F1800 X55.739 Y72.426 E363.14747
G0 F9000 X55.739 Y71.861
G1 F1800 X128.135 Y144.257 E368.25540
G0 F9000 X128.701 Y144.257
G1 F1800 X55.739 Y71.295 E373.40326
G0 F9000 X55.739 Y70.729
G1 F1800 X129.266 Y144.257 E378.59102
G0 F9000 X129.832 Y144.257
G1 F1800 X55.739 Y70.164 E383.81869
G0 F9000 X55.739 Y69.598
G1 F1800 X130.398 Y144.257 E389.08628
G0 F9000 X130.963 Y144.257
G1 F1800 X55.739 Y69.032 E394.39378
G0 F9000 X55.739 Y68.467
G1 F1800 X131.529 Y144.257 E399.74117
G0 F9000 X132.095 Y144.257
G1 F1800 X55.739 Y67.901 E405.12850
